X:1
T:Cochinchine
C:Traditionnel (Sude), abc file by Bernard Loffet
L:1/8
Q:320
M:2/4
K:G
|:[d2G,2][d2G,2]|[BG,]G[BG,]d|[BG,]G[BG,]d|[dD,]c[AD,]F|[d2D,2][d2D,2]|[BG,]G[BG,]d|[dD,]c[AD,]F|[G2G,2]G,2:|:[B2G,2][B2G,2]|[GE,]E[EE,]E| \
[c2A,2][c2A,2]|[AD,]F[FD,]F|[d2D,2][d2D,2]|[BG,]G[BG,]d|[dD,]c[AD,]F|[G2G,2]G,2:| \
Z:Created with TablEdit http://www.tabledit.com/ by Bernard Loffet
